src/images/icons/logo.svg

<svg xmlns="http://www.w3.org/2000/svg" width="40" height="40"><g><path fill="#212121" d="M21.557 40C9.67 40 0 30.314 0 18.41c0-2.09.225-5.358 1.29-9.062l.008-.037 4.397 1.268-.009.036a28.572 28.572 0 0 0-1.11 7.791c0 9.379 7.618 17.006 16.98 17.006 5.155 0 9.847-2.107 12.247-5.498 1.178-1.668 2.326-4.394 1.09-7.914a6.761 6.761 0 0 0-.576-1.203c-2.068 5.172-7.058 8.178-11.416 8.843-2.393.366-6.049-.074-8.446-2.523-1.32-1.348-2.741-3.828-2.024-7.997.695-4.037 4.646-6.855 10.314-7.357 2.618-.23 5.517.077 8.178 1.012-.052-2.68-.661-4.76-1.806-6.117-1.15-1.363-2.902-2.043-5.345-2.08-4.815-.08-6.917 3.6-7.003 3.757l-4.021-2.19c.135-.253 3.394-6.151 10.88-6.151h.212c3.794.055 6.745 1.301 8.772 3.701 2.25 2.662 3.194 6.533 2.813 11.53 1.658 1.332 2.997 3.061 3.778 5.233 1.477 4.21.883 8.499-1.668 12.102-3.292 4.655-9.267 7.434-15.981 7.434l.003.006Zm2.898-23.723c-.44 0-.877.018-1.307.058-2.825.25-5.84 1.45-6.206 3.57-.311 1.809-.05 3.16.781 4.006 1.178 1.203 3.33 1.378 4.49 1.2 3.424-.523 7.409-3.099 8.31-7.548-1.837-.864-3.99-1.286-6.068-1.286Z"/></g></svg>

<svg width="40" height="40" viewBox="0 0 40 40" fill="none" xmlns="http://www.w3.org/2000/svg">
<g clip-path="url(#clip0_226_102)">
<mask id="mask0_226_102" style="mask-type:luminance" maskUnits="userSpaceOnUse" x="0" y="0" width="40" height="40">
<path d="M0 0H40V40H0V0Z" fill="white"/>
</mask>
<g mask="url(#mask0_226_102)">
<path d="M21.557 40C9.67 40 0 30.314 0 18.41C0 16.32 0.225 13.052 1.29 9.348L1.298 9.311L5.695 10.579L5.686 10.615C4.95841 13.1484 4.58487 15.7702 4.576 18.406C4.576 27.785 12.194 35.412 21.556 35.412C26.711 35.412 31.403 33.305 33.803 29.914C34.981 28.246 36.129 25.52 34.893 22C34.7411 21.581 34.5482 21.178 34.317 20.797C32.249 25.969 27.259 28.975 22.901 29.64C20.508 30.006 16.852 29.566 14.455 27.117C13.135 25.769 11.714 23.289 12.431 19.12C13.126 15.083 17.077 12.265 22.745 11.763C25.363 11.533 28.262 11.84 30.923 12.775C30.871 10.095 30.262 8.015 29.117 6.658C27.967 5.295 26.215 4.615 23.772 4.578C18.957 4.498 16.855 8.178 16.769 8.335L12.748 6.145C12.883 5.892 16.142 -0.0059967 23.628 -0.0059967H23.84C27.634 0.0490033 30.585 1.295 32.612 3.695C34.862 6.357 35.806 10.228 35.425 15.225C37.083 16.557 38.422 18.286 39.203 20.459C40.68 24.668 40.086 28.957 37.535 32.56C34.243 37.215 28.268 39.994 21.554 39.994L21.557 40ZM24.455 16.277C24.015 16.277 23.578 16.295 23.148 16.335C20.323 16.585 17.308 17.785 16.942 19.905C16.631 21.714 16.892 23.065 17.723 23.911C18.901 25.114 21.053 25.289 22.213 25.111C25.637 24.588 29.622 22.012 30.523 17.563C28.686 16.699 26.533 16.277 24.455 16.277Z" fill="#212121"/>
</g>
</g>
<defs>
<clipPath id="clip0_226_102">
<rect width="40" height="40" fill="white"/>
</clipPath>
</defs>
</svg>
